!!!!SEGMENT: pl-kk--kk-i-24--002_anonim--missa-insignis-mater-et-in-terra.krn
!!!cenid: 17xx:2212
!!!COM: Anonim
!!!COM-rismID: pe30004985
!!!CDT:
!!!CNT:
!!!OPR: Missa Insignis Mater
!!!OTL: Et in terra
!!!OMV: 002
!!!PDT:
!!!AGN: Sacred; Mass
!!!SMS-siglum: PL-Kk
!!!SMS-shelfmark: Kk.I.24
!!!SMS-shelfwork: 001-002 M
!!!SMS-variant:
!!!SMS-altvar:
!!!NIFC-rismSourceID: 1001156018
!!!NIFC-islandoraID: pl-kk:15396
!!!URL-pdf-islandora: https://repozytorium.nifc.pl/islandora/object/pl-kk%3A15396/datastream/PDF/view
!!!URL-scan:
!!!ONB-nifc: UWAGA: części Mszy: 1. Kyrie, 2. Et in terra, 3. Sanctus, 4. Agnus Dei.
!!!AIN: 1 alto 2 empty 1 tenor 1 vox
!!!key:
**kern	**text	**kern	**text	**kern	**text	**kern	**text	**kern	**text
*part5	*part5	*part4	*part4	*part3	*part3	*part2	*part2	*part1	*part1
*staff5	*staff5	*staff4	*staff4	*staff3	*staff3	*staff2	*staff2	*staff1	*staff1
*Iempty	*	*Iempty	*	*Itenor	*	*Ialto	*	*Ivox	*
*I"Baſso Ripieno	*	*I"Baſso.	*	*I"Tenore	*	*I"Alto.	*	*I"Canto.	*
*I'B Rip	*	*I'B	*	*I'T	*	*I'A	*	*I'C	*
*clefF4	*	*clefF4	*	*clefC4	*	*clefC3	*	*clefC1	*
*ok[b-b-]	*	*ok[b-b-]	*	*	*	*	*	*	*
*k[b-]	*	*k[b-]	*	*k[b-]	*	*k[b-]	*	*k[b-]	*
*B-:	*	*B-:	*	*B-:	*	*B-:	*	*B-:	*
*M4/4	*	*M4/4	*	*M4/4	*	*M4/4	*	*M4/4	*
*met(c)	*	*met(c)	*	*met(c)	*	*met(c)	*	*met(c)	*
=1	=1	=1	=1	=1	=1	=1	=1	=1	=1
4.G\	Et	4.G\	Et	4.B-\	Et	4.g\	Et	4.dd\	Et
8G\	in	8G\	in	8B-\	in	8g\	in	8b-\	in
4E-X\	ter-	4E-X\	ter-	4B-\	ter-	4g\	ter-	4cc\	ter-
4F\	-ra	4F\	-ra	4A\	-ra	4fn\	-ra	4cc\	-ra
=2	=2	=2	=2	=2	=2	=2	=2	=2	=2
4BB-,/	pax	4BB-,/	pax	4B-,\	pax	4f,\	pax	4dd,\	pax
4D/	ho-	4D/	ho-	4B-\	ho-	4f\	ho-	4dd\	ho-
4.F\	-mi-	4.F\	-mi-	4.B-\	-mi-	4.f\	-mi-	4.cc\	-mi-
8F\	-ni-	8F\	-ni-	8A/	-ni-	8f\	-ni-	8cc\	-ni-
=3	=3	=3	=3	=3	=3	=3	=3	=3	=3
4G,\	-b(us)	4G,\	-b(us)	4B-,\	-b(us)	4d,\	-b(us)	4b-,\	-b(us)
8D/	no-	8D/	no-	8B-\	bo-	8d\	bo-	8b-\	bo-
8D/	-nae	8D/	-nae	8B-\	-nae	8d\	-nae	8b-\	-nae
4C/	Vo-	4C/	Vo-	4c\	vo-	4e-X\	vo-	4ee-X\	Vo-
4E-X\	-lun-	4E-X\	-lun-	4G/	-lun-	4e-\	-lun-	4b-\	-lun-
=4	=4	=4	=4	=4	=4	=4	=4	=4	=4
*	*	*	*	*	*	*	*	*2\right	*
(4C/	-ta-	(4C/	-ta-	4G/	-ta-	(4e\	-ta-	2at\	-ta-
4D/)	.	4D/)	.	4F#X/	.	4d\)	.	.	.
4GG,/	-tis.	4GG,/	-tis.	4G,/	-tis.	4d,\	-tis.	4g,/	-tis.
8G\L	Lau-	4G\	Lau-	4B-\	Lau-	4g\	Lau-	4dd\	Lau-
8F\J	.	.	.	.	.	.	.	.	.
=5	=5	=5	=5	=5	=5	=5	=5	=5	=5
*2\right	*	*2\right	*	*2\right	*	*2\right	*	*	*
2.E-X\	-da-	2.E-X\	-da-	2.B-\	-da-	2.g\	-da-	2.ee-X\	-da-
4E-\	-m(us)	4E-\	-m(us)	4B-\	-m(us)	4g\	-m(us)	4ee-\	-m(us)
=6	=6	=6	=6	=6	=6	=6	=6	=6	=6
4BB-,/	Te	4BB-,/	Te	4B-,\	Te	4fn,\	Te,	4dd\	Te,
8BB-/	be-	8BB-/	be-	8d\	be-	8f\	be-	4r	.
8BB-/	-ne-	8BB-/	-ne-	8d\	-ne-	8f\	-ne-	.	.
4GG/	-di-	4GG/	-di-	4d\	-di-	4g\	-di-	2r	.
8AA/	-ci-	8AA/	-ci-	8c#X\	-ci-	8en\	-ci-	.	.
8AA/	-m(us)	8AA/	-m(us)	8c#\	-m(us)	8e\	-m(us)	.	.
=7	=7	=7	=7	=7	=7	=7	=7	=7	=7
*	*	*	*	*	*	*custos:d	*	*	*
4D,/	Te	4D,/	Te	4d,\	Te	4f,\	Te	4r	.
!	!	!	!	!	!	!LO:LB:g=original	!	!	!
=-	=-	=-	=-	=-	=-	=-	=-	=-	=-
8BB-/	a-	8BB-/	a-	8d\	a-	8d\	a-	8ff\	a-
8D/	-do-	8D/	-do-	8d\	-do-	8f\	-do-	8ff\	-do-
!	!	!	!	!LO:LB:g=original	!	!	!	!	!
=-	=-	=-	=-	=-	=-	=-	=-	=-	=-
4E-X\	-ra-	4E-X\	-ra-	4.cn\	-ra-	4e-X\	-ra-	4gg\	-ra-
4F\	-m(us)	4F\	-m(us)	.	.	4c/	-m(us)	4ff\	-m(us)
.	.	.	.	8c\	-m(us)	.	.	.	.
!	!	!LO:LB:g=original	!	!	!	!	!	!	!
=8	=8	=8	=8	=8	=8	=8	=8	=8	=8
4BB-,/	Te	4BB-,/	Te	4B-,\	Te	4d,\	Te,	4ff,\	Te
*	*	*	*	*	*	*	*	*custos:cc	*
4GG/	glo-	4GG/	glo-	4d\	glo-	4d\	glo-	4b-\	glo-
!	!	!	!	!	!	!	!	!LO:LB:g=original	!
=-	=-	=-	=-	=-	=-	=-	=-	=-	=-
4C/	-ri-	4C/	-ri-	4c\	-ri-	4e-X\	-ri-	4cc\	-ri-
4GG/	-fi-	4GG/	-fi-	4B-\	-fi-	4g\	-fi-	4dd\	-fi-
!LO:LB:g=original	!	!	!	!	!	!	!	!	!
=9	=9	=9	=9	=9	=9	=9	=9	=9	=9
*	*	*	*	*	*	*2\left	*	*	*
2.D\	-ca-	2.D\	-ca-	2.A/	-ca-	2.g\	-ca-	2.dd\	-ca-
4D\	-m(us)	4D\	-m(us)	4A/	-m(us)	4f#X\	-m(us)	4dd\	-mus
=10	=10	=10	=10	=10	=10	=10	=10	=10	=10
1GG	Te.	1GG	Te.	1Bn	Te.	1g	Te.	1dd	Te.
=11||	=11||	=11||	=11||	=11||	=11||	=11||	=11||	=11||	=11||
*M3/2	*	*M3/2	*	*M3/2	*	*M3/2	*	*M3/2	*
2r	.	2r	.	2r	.	00.r	.	4g/	Gra-
.	.	.	.	.	.	.	.	4a/	.
2.G\	Gra-	(2.G\	Gra-	4G/	Gra-	.	.	(4b-\	.
.	.	.	.	(4A/	.	.	.	4cc\	.
.	.	.	.	4B-/)	.	.	.	4dd\	.
(8F\L	.	8F\L	.	4c/	.	.	.	4ee\)	.
8E\J)	.	8E\J)	.	.	.	.	.	.	.
=12	=12	=12	=12	=12	=12	=12	=12	=12	=12
4D\	.	4D\	.	2.d\	.	.	.	2.ff\	.
4E\	.	4E\	.	.	.	.	.	.	.
4F\	-ti-	4F\	-ti-	.	.	.	.	.	.
4G\	.	4G\	.	4d\	-ti-	.	.	4ff\	ti-
2A\	-as	2A\	-as	2c\	-as	.	.	2een\	-as
=13	=13	=13	=13	=13	=13	=13	=13	=13	=13
4B-\	a-	4B-\	a-	4B-\	a-	.	.	1dd	a-
4A\	.	4A\	.	4c\	.	.	.	.	.
4G\	.	4G\	.	2d\	.	.	.	.	.
4F\	.	4F\	.	.	.	.	.	.	.
2En\	.	2En\	.	2c#X\	-gi-	.	.	2een\	-gi-
=14	=14	=14	=14	=14	=14	=14	=14	=14	=14
4D\	-gi-	4D\	-gi-	2d,\	-mus	.	.	2ff,\	-m(us)
4D,\	-m(us)	4D\	-m(us)	.	.	.	.	.	.
(2G\	Ti-	(2G\	Ti-	2d\	Ti-	.	.	1een	Ti-
2A\)	.	2A\)	.	2c#X\	.	.	.	.	.
=15	=15	=15	=15	=15	=15	=15	=15	=15	=15
1.D	-bi.	1.D	-bi.	1.d	-bi.	1.r	.	1.dd,	-bi.
=16	=16	=16	=16	=16	=16	=16	=16	=16	=16
*	*	*	*	*	*	*2\right	*	*	*
2.D/	Gra-	2.D/	Gra-	2.d\	Gra-	2.f\	Gra-	2.ff\	Gra-
4AA/	-ti-	4AA/	-ti-	4c\	-ti-	4a\	-ti-	4ee-X\	-ti-
2BB-/	-as	2BB-/	-as	2B-\	-as	2f\	-as	2dd,\	-as
!	!	!	!	!LO:LB:g=original	!	!	!	!	!
=17	=17	=17	=17	=17	=17	=17	=17	=17	=17
*	*ij	*	*ij	*	*ij	*	*ij	*	*ij
2.F\	Gra-	2.F\	Gra-	2.A/	Gra-	2.f\	Gra-	2.cc\	Gra-
4F\	-ti-	4F\	-ti-	4A/	-ti-	4f\	-ti-	4cc\	-ti-
2BB-/	-as	2BB-/	-as	2B-\	-as	2f\	-as	2b-,\	-as
*	*Xij	*	*Xij	*	*Xij	*	*Xij	*	*Xij
=18	=18	=18	=18	=18	=18	=18	=18	=18	=18
2.F\	a-	2.F\	a-	4A/	a-	1f	a-	(4cc\	a-
.	.	.	.	4G/	.	.	.	4b-\	.
.	.	.	.	4A/	.	.	.	4cc\	.
8E-X\L	.	8E-X\L	.	4B-/	.	.	.	4dd\)	.
8D\J	.	8D\J	.	.	.	.	.	.	.
2C/	.	2C/	.	2c\	-gi-	2e-X\	-gi-	2ee-X\	.
!	!	!LO:PB:g=original	!	!	!	!	!	!LO:LB:g=original	!
=19	=19	=19	=19	=19	=19	=19	=19	=19	=19
4D\	-gi-	4D/	-gi-	2B-,\	-mus	2f,\	-m(us)	4dd\	-gi-
4D\	-m(us)	4D/	-m(us)	.	.	.	.	4dd\	-m(us)
(2E-X\	Ti-	2E-X\	Ti-	2B-\	Ti-	(2g\	Ti-	1cc	Ti-
2F\)	.	2F\	.	2A\	.	2f\)	.	.	.
=20	=20	=20	=20	=20	=20	=20	=20	=20	=20
*	*	*	*	*	*	*custos:f	*	*	*
1.BB-	-bi	1.BB-	-bi	1.B-	-bi.	1.f	-bi.	1.b-,	-bi.
!	!	!	!	!	!	!LO:PB:g=original	!	!	!
=21	=21	=21	=21	=21	=21	=21	=21	=21	=21
2.F\	pro-	2.F\	pro-	2.A/	pro-	2.f\	pro-	2.cc\	pro-
4F\	-pter	4F\	-pter	4A/	-pter	4f\	-pter	4cc\	-pter
4BB-/	ma-	4BB-/	ma-	4B-\	ma-	4f\	mag-	4dd\	mag-
4BB-/	-gn(am)	4BB-/	-gn(am)	4B-\	-gnam	4f\	-nam	4dd\	-nam
!LO:LB:g=original	!	!	!	!	!	!	!	!	!
=22	=22	=22	=22	=22	=22	=22	=22	=22	=22
2E-X\	glo-	2E-X\	glo-	2G/	glo-	2e-X\	glo-	2b-\	glo-
4C/	-ri-	4C/	-ri-	4d\	-ri-	4e-\	-ri-	4cc\	-ri-
4GG/	-am	4GG/	-am	4d,\	-am	4d,\	-am	4b-\	-am
2D\	tu-	2D/	tu-	2d\	tu-	2d\	tu-	2a\	tu-
=23	=23	=23	=23	=23	=23	=23	=23	=23	=23
1.GG	-am	1.GG	-am	1.d	-am.	1.Bn,	-a(m).	1.g	-am.
=24	=24	=24	=24	=24	=24	=24	=24	=24	=24
*	*	*	*	*custos:G	*	*	*	*	*
2.G\	Do-	2.G\	Do-	0.r	.	2g\	Do-	2g\	Do-
.	.	.	.	.	.	2d\	-mi-	2b-\	-mi-
4F\	-mi-	4F\	-mi-	.	.	.	.	.	.
2En,\	-ne	2En\	-ne	.	.	2en\	-ne	2cc\	-ne
=25	=25	=25	=25	=25	=25	=25	=25	=25	=25
*	*	*	*ij	*	*	*	*	*	*
2D|\	De-	2D\	Do-	.	.	2f\	De-	1dd	DE-
2E|\	.	2E\	-mi-	.	.	2e\	-us	.	.
2F#X,\	-us	2F#X\	-ne	.	.	2r	.	2cc\	-us
*	*	*	*Xij	*	*	*	*	*	*
!	!	!	!	!LO:LB:g=original	!	!	!	!	!
=26	=26	=26	=26	=26	=26	=26	=26	=26	=26
2G\	Rex	2G\	DE-	2G/	Do-	(2d\	Rex	1.b-	Rex
2GG/	cae-	2GG/	.	2B-\	-mi-	2g\)	.	.	.
2AA/	.	2AA/	-US	2c\	-ne	(4f\	cae-	.	.
.	.	.	.	.	.	4e\)	.	.	.
=27	=27	=27	=27	=27	=27	=27	=27	=27	=27
4BB-/	-le-	4BB-/	Rex	1d	De-	(4d\	-le-	0.r	.
4C/	.	4C/	.	.	.	4e\	.	.	.
4D/	.	4D/	.	.	.	4f\	.	.	.
4E/	.	4E/	.	.	.	4g\)	.	.	.
2F\	.	2F\	.	2c\	-us	2a\	.	.	.
=28	=28	=28	=28	=28	=28	=28	=28	=28	=28
2.G\	.	2.G\	.	1.B-	Rex	2g\	.	.	.
.	.	.	.	.	.	2g,\	-stis	.	.
4F\	.	4F\	.	.	.	.	.	.	.
*	*	*custos:BB	*	*	*	*	*	*	*
2E-X\	.	2E-X\	.	.	.	2g\	Rex	.	.
!	!	!LO:LB:g=original	!	!	!	!	!	!	!
=29	=29	=29	=29	=29	=29	=29	=29	=29	=29
*	*	*	*	*	*	*	*	*custos:b	*
(2BB-/	.	2BB-/	-Cae-	2B-\	cae-	2g\	Cae-	1.r	.
2C/	.	2C/	-le-	1A	-le-	2g\	-le-	.	.
2D/)	.	2D/	.	.	.	2f#X\	.	.	.
!	!	!	!	!	!	!	!	!LO:PB:g=original	!
=30	=30	=30	=30	=30	=30	=30	=30	=30	=30
2GG,/	-stis	2GG,/	stis	1.G	-stis	1.g	-stis	2r	.
2G\	De-	2G\	DE-	.	.	.	.	2b-\	DE-
2A\	-us	2A\	-US	.	.	.	.	2cc\	-us
=31	=31	=31	=31	=31	=31	=31	=31	=31	=31
1.B-	Pa-	1.B-	Pa-	2r	.	2r	.	1.dd	Pa-
.	.	.	.	2d\	DE-	2fn\	De-	.	.
.	.	.	.	2e\	-US	2g\	-us	.	.
=32	=32	=32	=32	=32	=32	=32	=32	=32	=32
2F,\	-ter	2F,\	-ter	1f	Pa-	1a	Pa-	1.cc,	-ter
*	*ij	*	*	*	*	*	*	*	*
2AA/	De-	2AA/	DE-	.	.	.	.	.	.
2C/	-us	2C/	-us	2e\	-ter	2g\	-ter	.	.
!	!	!	!	!	!	!LO:LB:g=original	!	!	!
=33	=33	=33	=33	=33	=33	=33	=33	=33	=33
*	*	*	*	*	*ij	*	*	*	*
4D/	Pa-	4D/	Pa-	1d	Pa-	2f\	Pa-	(4a\	O-
4C/	.	4C/	.	.	.	.	.	8b-\L	.
.	.	.	.	.	.	.	.	8cc\J	.
4BB-/	.	4BB-/	.	.	.	2F,/	-ter	4dd\)	.
4AA/	.	4AA/	.	.	.	.	.	4cc\	.
2GG/	.	2GG/	.	2e\	-ter	2G/	O-	4b-\	.
*	*	*	*	*	*Xij	*	*	*	*
.	.	.	.	.	.	.	.	4cc\	.
!LO:LB:g=original	!	!	!	!	!	!	!	!	!
=34	=34	=34	=34	=34	=34	=34	=34	=34	=34
4F,\	-ter	4F,\	-ter	2f\	O-	(2A/	-mni-	2dd\	.
*	*Xij	*	*	*	*	*	*	*	*
4F,\	o-	4F\	o-	.	.	.	.	.	.
2G\	-mni-	2G\	-mni-	2.en\	-mni-	2B-/)	.	2.dd\	-mni-
2A\	-po-	2A\	-po-	.	.	2A/	-po-	.	.
.	.	.	.	4e\	-po-	.	.	4cc#X\	-po-
=35	=35	=35	=35	=35	=35	=35	=35	=35	=35
1.D	-tens	1.D	-tens	1.d	-tens.	1.A	-tens	1.dd,	-tens.
=36	=36	=36	=36	=36	=36	=36	=36	=36	=36
00.r	.	00.r	.	2.d\	Do-	2.B-/	Do-	2.ff\	Do-
.	.	.	.	4c\	-mi-	4c\	-mi-	4ee-X\	-mi-
.	.	.	.	2B-\	-ne	2d\	-ne	2dd,\	-ne
=37	=37	=37	=37	=37	=37	=37	=37	=37	=37
.	.	.	.	1A	Fi-	1f	Fi-	1cc	Fi-
.	.	.	.	2B-\	-li	2d\	-li	2dd,\	-li
=38	=38	=38	=38	=38	=38	=38	=38	=38	=38
.	.	.	.	4A/	U-	2.f\	U-	(4cc\	U-
.	.	.	.	4G/	.	.	.	4b-\	.
.	.	.	.	4A/	.	.	.	4cc\	.
.	.	.	.	4B-/	.	8e-X\L	.	4dd\)	.
.	.	.	.	.	.	8d\J	.	.	.
.	.	.	.	2c\	.	2c\	.	2ee-X\	.
!	!	!	!	!LO:LB:g=original	!	!	!	!	!
=39	=39	=39	=39	=39	=39	=39	=39	=39	=39
.	.	.	.	2B-\	-ni-	2d\	-ni-	2dd\	-ni
.	.	.	.	2B-\	-ge-	2.f\	-ge-	2.cc\	ge-
.	.	.	.	2A\	-ni-	.	.	.	.
.	.	.	.	.	.	4f\	-ni-	4cc\	-ni-
=40	=40	=40	=40	=40	=40	=40	=40	=40	=40
*	*	*	*	*	*	*	*	*custos:cc	*
4B-X\	Je-	4B-X\	JE-	1B-,	-te	2B-,/	-te	1.dd	-te
(4A\	.	4A\	.	.	.	.	.	.	.
4G\	.	4G\	.	.	.	4d\	JE-	.	.
4F\	.	4F\	.	.	.	8e-X\L	.	.	.
.	.	.	.	.	.	8f\J	.	.	.
4E-X\)	.	4E-X\	.	4B-\	JE-	4g\	.	.	.
4D\	.	4D\	.	8c\L	.	4f\	.	.	.
.	.	.	.	8d\J	.	.	.	.	.
!	!	!	!	!	!	!	!	!LO:LB:g=original	!
=41	=41	=41	=41	=41	=41	=41	=41	=41	=41
4C/	.	4C/	.	4e-X\	.	2e-X\	.	1cc	Je-
8D/L	.	8D/L	.	4d\	.	.	.	.	.
8E-X/J	.	8E-X/J	.	.	.	.	.	.	.
4F\	.	4F\	.	2c\	.	1f	-SU	.	.
4E-\	.	4E-\	.	.	.	.	.	.	.
2D\	-su	2D\	.	2B-\	-SU	.	.	2dd\	-su
!	!	!LO:LB:g=original	!	!	!	!	!	!	!
=42	=42	=42	=42	=42	=42	=42	=42	=42	=42
2E-X\	X-	2E-X,\	-su	(2B-\	X-	1e-X	Chri-	2b-\	X-
2C/	.	2C/	Chri-	2c\)	.	.	.	1a	.
2D/	.	2D/	.	2A\	.	2d\	.	.	.
=43	=43	=43	=43	=43	=43	=43	=43	=43	=43
1.GG	-ste.	1.GG	-ste.	1.Bn	-te	1.d	-ste	1.g	-te.
!	!	!	!	!	!	!LO:LB:g=original	!	!	!
=44||	=44||	=44||	=44||	=44||	=44||	=44||	=44||	=44||	=44||
*M4/4	*	*M4/4	*	*M4/4	*	*M4/4	*	*M4/4	*
*met(c)	*	*met(c)	*	*met(c)	*	*met(c)	*	*met(c)	*
2.GG/	Do-	2.GG/	Do-	1r	.	4G/	Do-	4dd\	Do-
.	.	.	.	.	.	8G/	-mi-	8dd\	-mi-
.	.	.	.	.	.	8G/	-ne	8dd\	-ne
.	.	.	.	.	.	4B-/	DE-	4dd\	De-
8AA/	-mi-	8AA/	-mi-	.	.	4c/	-(us)	4ccn,\	-us
8AA/	-ne	8AA/	-ne	.	.	.	.	.	.
=45	=45	=45	=45	=45	=45	=45	=45	=45	=45
4BB-/	De-	4BB-/	De-	4D/	Do-	2d\	A-	4b-\	Ag-
8D\L	-us	(8D\L	-us	8F/	-mi-	.	.	4b-,\	-n(us)
8E\J	.	8E\J)	.	8G/	-ne	.	.	.	.
*	*ij	*	*	*	*	*	*	*	*
(8F\L	De-	(8F\L	a-	8A/L	DE-	2c\	-gn(us)	4a\	De-
8E\J)	.	8E\J)	.	8G/J	.	.	.	.	.
(8F\L	-us	(8F\L	-gn(us)	8A/L	-us	.	.	4a\	-i
*	*Xij	*	*	*	*	*	*	*	*
8C\J)	.	8C\J)	.	8E/J	.	.	.	.	.
=46	=46	=46	=46	=46	=46	=46	=46	=46	=46
*	*	*	*ij	*	*	*	*	*	*
4D/	a-	4D/	a-	4F#X/	A-	2B-/	De-	4dd\	Fi-
4BB-,/	-gn(us)	4BB-,/	-gn(us)	2G/	-gn(us)	.	.	8dd\	-li-
*	*	*	*Xij	*	*	*	*	*	*
.	.	.	.	.	.	.	.	8dd\	-(us)
(4C/	De-	4C/	De-	.	.	2A/	.	(4ee-X\	Pa-
4D/)	-i-	4D/	-i-	4F#X/	De-	.	.	4dd\)	.
=47	=47	=47	=47	=47	=47	=47	=47	=47	=47
4GG/	-i	4GG,/	-i	4G,/	-i.	4G,/	-i	4dd\	-tris
4.G\	Fi-	4.G\	Fi-	4.B-\	Fi-	4.d\	Fi-	4r	.
.	.	.	.	.	.	.	.	8dd\	Fi-
8G\	-li-	8G\	-li-	8B-\	-li-	8d\	-li-	8dd\	-li-
4F,\	-(us)	4F\	-(us)	4A/	-(us)	4f\	-(us)	4dd\	-(us)
=48-	=48-	=48	=48	=48	=48	=48	=48	=48	=48
1A	P(a-	2A\	Pa-	1A	Pa-	1e	Pa-	4dd\	Pa-
.	.	.	.	.	.	.	.	8cc#X\L	.
.	.	.	.	.	.	.	.	8b-\J	.
.	.	2AA/	.	.	.	.	.	2cc#X\	.
=49-	=49-	=49-	=49-	=49	=49	=49	=49	=49	=49
1D	-t)ris.	1D	-tris.	1A	-tris.	1f#X	-tris.	1dd	-tris.
!LO:LB:g=original	!	!	!	!LO:LB:g=original	!	!	!	!LO:LB:g=original	!
=50||	=50||	=50||	=50||	=50||	=50||	=50||	=50||	=50||	=50||
*M3/2	*	*M3/2	*	*M3/2	*	*M3/2	*	*M3/2	*
2G\	Qui	2G\	Qui	2G/	Qui	1d	Qui	00.r	.
2G\	tol-	2G\	tol-	2B-\	tol-	.	.	.	.
2F\	-lis	2F\	-lis	2c\	-lis	2f\	tol-	.	.
=51	=51	=51	=51	=51	=51	=51	=51	=51	=51
4BB-/	pec-	4BB-/	pec-	2d\	pec-	1f	-lis	.	.
4C/	.	4C/	.	.	.	.	.	.	.
4D/	.	4D/	.	2.d\	-ca-	.	.	.	.
4E/	.	4E/	.	.	.	.	.	.	.
2F\	.	2F\	.	.	.	2f\	pec-	.	.
.	.	.	.	4c\	.	.	.	.	.
!	!	!LO:LB:g=original	!	!	!	!	!	!	!
=52	=52	=52	=52	=52	=52	=52	=52	=52	=52
1G	-ca-	1G	-ca-	1B-	.	2d\	-ca-	.	.
.	.	.	.	.	.	1g,	-ta	.	.
2C/	-ta	2C/	-ta	2c\	-ta	.	.	.	.
=53	=53	=53	=53	=53	=53	=53	=53	=53	=53
2GG/	mun-	2GG/	mun-	2B-\	mun-	1g	mun-	.	.
1D	.	1D	.	1A	.	.	.	.	.
.	.	.	.	.	.	2f#X\	.	.	.
=54	=54	=54	=54	=54	=54	=54	=54	=54	=54
2GG,/	-di	2GG,/	-di	2Bn,\	-di	2g,\	-di	2r	.
2G\	mi-	2G\	mi-	2B\	mi-	2g\	mi-	2dd\	mi-
2En\	-ſe-	2En\	-ſe-	2c#X\	-ſe-	2g\	-ſe-	2een\	-se-
=55	=55	=55	=55	=55	=55	=55	=55	=55	=55
1D	-re-	1D	-re-	1d	-re-	1fn	-re-	1ff	-re-
2E\	-re	2E\	-re	2cn\	-re	2e\	-re	2ee\	-re
!	!	!	!	!	!	!LO:LB:g=original	!	!	!
=56	=56	=56	=56	=56	=56	=56	=56	=56	=56
*	*ij	*	*ij	*	*	*	*ij	*	*ij
2.G\	mi-	2.G\	mi-	2.Bn\	mi-	2.d\	mi-	2.dd\	mi-
4F\	-ſe-	4F\	-ſe-	4B\	-ſe-	4d\	-ſe-	4dd\	-se-
2E\	-re-	2E\	-re-	2c#X\	-re-	2e\	-re-	2ee\	-re-
=57	=57	=57	=57	=57	=57	=57	=57	=57	=57
2D,\	-re	2D,\	-re	2d\	-re	2f,\	-re	2ff,\	-re
*	*Xij	*	*Xij	*	*	*	*Xij	*	*Xij
2A\	no-	1A	no-	2d\	no-	1e	no-	1ee	no-
2AA/	.	.	.	2c#X\	.	.	.	.	.
=58	=58	=58	=58	=58	=58	=58	=58	=58	=58
1D,	-bis.	1D,	-bis.	1d,	-bis.	1f,	-bis.	1dd,	-bis.
2D\	Qui	2D/	Qui	2d\	Qui	2f\	Qui	2a\	Qui
=59	=59	=59	=59	=59	=59	=59	=59	=59	=59
2G\	tol-	2G\	tol-	2d\	tol-	2d\	tol-	2b-\	tol-
2G\	-lis	2G\	-lis	2d\	-lis	2d,\	-lis	2b-,\	-lis
2F#X\	pec-	2F#X\	pec-	2d\	pec-	2d\	pec-	2a\	pec-
=60	=60	=60	=60	=60	=60	=60	=60	=60	=60
2.G\	-ca-	2.G\	-ca-	4d\	-ca-	(2.d\	-ca-	(4b-\	-ca-
.	.	.	.	4c\	.	.	.	4a\	.
.	.	.	.	4B-\	.	.	.	4b-\	.
!	!	!	!	!	!	!LO:TX:a:t=P:problem=♭ above	!	!	!
8F\L	.	8F\L	.	8A/L	.	4e-X\)	.	4cc\)	.
8E-X\J	.	8E-X\J	.	8G/J	.	.	.	.	.
2D/	-ta	2D\	.	2F/	.	2f\	-ta	2dd\	.
!	!	!	!	!LO:LB:g=original	!	!	!	!	!
=61	=61	=61	=61	=61	=61	=61	=61	=61	=61
!	!	!	!	!	!	!LO:TX:a:t=P:problem=♭ above	!	!	!
2E-X\	mun-	2E-X\	-ta	2G,/	ta	2e-X\	mun-	2cc,\	-ta
!	!	!	!	!LO:TX:a:t=P:problem=♭ above	!	!	!	!	!
2F\	.	2F\	mun-	2A-X/	mun-	1d	.	2cc\	mun-
2G\	.	2G\	.	2G/	.	.	.	2bn\	.
=62	=62	=62	=62	=62	=62	=62	=62	=62	=62
!	!	!	!	!	!	!LO:TX:a:t=P:problem=♮ above	!	!	!
1.C	-di	1.C	-di	1.G	-di	1.en,	-di.	1.cc,	-di.
!LO:LB:g=original	!	!	!	!	!	!	!	!	!
=63	=63	=63	=63	=63	=63	=63	=63	=63	=63
2.G\	Suſ-	2.GG/	Suſ-	2.B-X\	Suſ-	2.d\	Suſ-	2.dd\	Sus-
4G\	-ci-	4GG/	-ci-	4B-\	-ci-	4d\	-ci-	4dd\	-ci-
2GG/	-pe	2GG/	-pe	2B-\	-pe	2d\	-pe	2dd\	-pe
!	!	!LO:LB:g=original	!	!	!	!	!	!	!
=64	=64	=64	=64	=64	=64	=64	=64	=64	=64
*	*ij	*	*ij	*	*ij	*	*ij	*	*ij
2.D\	Suſ-	2.D/	Suſ-	2.A/	Suſ-	2.f\	Suſ-	2.dd\	Sus-
4D\	-ci-	4D/	-ci-	4A/	-ci-	4f\	-ci-	4dd\	-ci-
*	*	*	*	*	*	*	*	*custos:dd	*
2D\	-pe	2D/	-pe	2F/	-pe	2f\	-pe	2dd\	-pe
*	*Xij	*	*Xij	*	*Xij	*	*Xij	*	*Xij
!	!	!	!	!	!	!	!	!LO:LB:g=original	!
=65	=65	=65	=65	=65	=65	=65	=65	=65	=65
1BB-	de-	1BB-X	de-	1F	de-	1d	de-	1dd	de-
2BB-/	-pre-	2BB-/	-pre-	2F/	-pre-	2d\	-pre-	2dd\	-pre-
=66	=66	=66	=66	=66	=66	=66	=66	=66	=66
2.E-X\	-ca-	2.E-X\	-ca-	4E-X/	-ca-	2.g\	-ca-	2.ee-X\	-ca-
.	.	.	.	4F/	.	.	.	.	.
.	.	.	.	4G/	-ti-	.	.	.	.
4F\	-ti-	4F\	-ti-	4A/	.	4g\	-ti-	4ee-\	-ti-
2G\	-o-	2G\	-o-	2B-\	-o-	2g\	-o-	2dd\	-o-
=67	=67	=67	=67	=67	=67	=67	=67	=67	=67
2D\	-nem	2D\	-nem	2B-\	-nem	2f,\	-nem	2dd,\	-nem
1F	no-	1F	no-	2B-\	no-	1f	no-	1cc	no-
.	.	.	.	2A\	.	.	.	.	.
!	!	!	!	!	!	!LO:LB:g=original	!	!	!
=68	=68	=68	=68	=68	=68	=68	=68	=68	=68
1BB-,	-stram	1BB-,	-stram	1B-,	-stram	1f,	-stram	1.b-,	-stram
2BB-/	Qui	2BB-/	Qui	2B-\	Qui	2f\	Qui	.	.
=69	=69	=69	=69	=69	=69	=69	=69	=69	=69
2BB-/	se-	2BB-/	se-	2d\	se-	2f\	se-	2dd\	Qui
2C/	-des	2C/	-des	2c\	-des	2e-X\	-des	2cc\	se-
2D\	ad	2D/	ad	2B-\	ad	2d\	ad	2b-\	-des
=70	=70	=70	=70	=70	=70	=70	=70	=70	=70
2.F\	dex-	2.F\	dex-	2A\	dex-	(2c\	dex-	(2a\	ad
.	.	.	.	4A\	-te-	4c\	.	4a\)	.
8E-X\L	-te-	8E-X\L	-te-	4B-\	.	4d\)	.	4b-\	dex-
8D\J	.	8D\J	.	.	.	.	.	.	.
4C/	.	4C/	.	2c\	-ram	4e-X\	-te-	2cc\	-te-
4C/	.	4C/	.	.	.	4c\	.	.	.
=71	=71	=71	=71	=71	=71	=71	=71	=71	=71
2D,\	-ram	2D\	-ra(m)	1B-	Pa-	2B-,/	-ram	1b-,	-ram
1F	P(a-	1F	Pa-	.	.	1c	Pa-	.	.
.	.	.	.	2A\	.	.	.	2a\	Pa-
=72	=72	=72	=72	=72	=72	=72	=72	=72	=72
1.BB-	-t)ris	1.BB-	-tris	1.B-	-tris	1.d,	-tris	1.b-,	-tris
!	!	!	!	!LO:LB:g=original	!	!	!	!	!
=73	=73	=73	=73	=73	=73	=73	=73	=73	=73
2.F\	mi-	2.F\	mi-	2.A\	mi-	1f	mi-	2.cc\	mi-
4F\	-ſe-	4F\	-ſe-	4A\	-se-	.	.	4cc\	-ſe-
2D\	-re-	2D\	-re-	2B-\	-re-	2f\	-ſe-	2dd\	-re-
=74	=74	=74	=74	=74	=74	=74	=74	=74	=74
2E-X\	-re	2E-X\	-re	2G/	-re	2.e-X\	-re-	2b-\	-re
2C/	no-	2C/	no-	2G/	no-	.	.	1a	no-
.	.	.	.	.	.	4e-\	-re	.	.
2D/	.	2D/	.	2F#X/	.	2d\	no-	.	.
=75	=75	=75	=75	=75	=75	=75	=75	=75	=75
2GG/	-bis.	2GG/	-bis.	1.G	-bis.	1.d	-bis	2g,/	-bis.
2r	.	2r	.	.	.	.	.	2.dd\	Quo-
2r	.	2r	.	.	.	.	.	.	.
.	.	.	.	.	.	.	.	4dd\	-ni-
!	!	!LO:LB:g=original	!	!	!	!	!	!	!
=76	=76	=76	=76	=76	=76	=76	=76	=76	=76
2r	.	2r	.	1.r	.	2.g\	Quo-	4g\	-am
.	.	.	.	.	.	.	.	4a\	tu
2.G\	Quo-	2.G\	Quo-	.	.	.	.	2b-\	so-
.	.	.	.	.	.	4g\	-ni-	.	.
.	.	.	.	.	.	4d\	-am	2b-\	-l(us)
4G\	-ni-	4G\	-ni-	.	.	4e\	.	.	.
!	!	!	!	!	!	!	!	!LO:LB:g=original	!
=77	=77	=77	=77	=77	=77	=77	=77	=77	=77
4D\	-am	4D\	-am	2.d\	Quo-	1.f	Tu	2.ff\	Quo-
4E\	tu	4E\	tu	.	.	.	.	.	.
1F	so-	1F	so-	.	.	.	.	.	.
.	.	.	.	4d\	-ni-	.	.	4ff\	-ni-
.	.	.	.	4A/	-am	.	.	4cc\	-am
.	.	.	.	4B-/	tu	.	.	4dd\	tu
!LO:LB:g=original	!	!	!	!	!	!	!	!	!
=78	=78	=78	=78	=78	=78	=78	=78	=78	=78
2C/	-l(us)	2C,/	-l(us)	(4c\	so-	4e-X\	So-	2.ee-X\	So-
.	.	.	.	8B-\L	.	4f\	-lus	.	.
.	.	.	.	8A\J	.	.	.	.	.
*	*	*	*	*	*	*	*ij	*	*
1E-X	San-	1E-X	San-	2.G/)	.	1g	So-	.	.
.	.	.	.	.	.	.	.	8dd\L	.
.	.	.	.	.	.	.	.	8cc\J	.
.	.	.	.	.	.	.	.	4b-\	.
.	.	.	.	4A/	.	.	.	4cc\	.
=79	=79	=79	=79	=79	=79	=79	=79	=79	=79
2D\	.	2D\	.	1B-	.	2f,\	-lus	2dd,\	-lus
*	*	*	*	*	*	*	*Xij	*	*
1F	.	1F	.	.	.	1f	San-	1cc	San-
.	.	.	.	2A,\	-lus	.	.	.	.
=80	=80	=80	=80	=80	=80	=80	=80	=80	=80
1.BB-	-ct(us)	1.BB-,	-ctus	1B-	San-	1.f	-ct(us).	1b-,	-ct(us).
.	.	.	.	2B-\	-ct(us)	.	.	2dd\	Tu
!	!	!	!	!	!	!LO:LB:g=original	!	!	!
=81	=81	=81	=81	=81	=81	=81	=81	=81	=81
2F\	Tu	2F,\	Tu	4A/	Tu	0.r	.	(4cc\	So-
.	.	.	.	(4G/	.	.	.	4b-\	.
2F\	so-	2F\	so-	4A/	.	.	.	4cc\	.
.	.	.	.	4B-/)	.	.	.	4dd\)	.
2G\	-lus	2G,\	-lus	2G/	so-	.	.	2b-\	.
=82	=82	=82	=82	=82	=82	=82	=82	=82	=82
2AA/	Do-	2AA/	Do-	2F,/	-lus	.	.	2a,\	-lus
2BB-/	.	2BB-/	.	2.F/	Do-	.	.	2.g/	Do-
2C/	-mi-	2C/	-mi-	.	.	.	.	.	.
.	.	.	.	4E/	-mi-	.	.	4g/	-mi-
=83	=83	=83	=83	=83	=83	=83	=83	=83	=83
1F,	-n(us)	1F,	-n(us)	2F,/	-n(us)	2r	.	2a,\	-n(us)
.	.	.	.	(2A/	Tu	1f	Tu	(2cc\	Tu
2D\	Tu	2D\	Tu	2B-/)	.	.	.	2dd\)	.
=84	=84	=84	=84	=84	=84	=84	=84	=84	=84
4E-X\	so-	4E-X\	so-	4G/	so-	4e-X\	so-	4b-\	so-
4E-\	-l(us)	4E-,\	-l(us)	4G/	-l(us)	4e-,\	-lus	4b-,\	-l(us)
*	*ij	*	*ij	*	*ij	*	*ij	*	*ij
2C/	so-	2C/	so-	2A/	so-	2e-\	so-	2cc\	so-
4D,/	-l(us)	4D,/	-l(us)	4F/	-l(us)	4d,\	-lus	4a,\	-l(us)
*	*Xij	*	*Xij	*	*Xij	*	*Xij	*	*Xij
4D/	al-	4D/	al-	4F/	al-	4d\	al-	4a\	al-
!	!	!	!	!LO:LB:g=original	!	!	!	!	!
=85	=85	=85	=85	=85	=85	=85	=85	=85	=85
2BB-X/	-tiſ-	2BB-X/	-tiſ-	2G/	-tiſ-	2d\	-tiſ-	2b-\	-tiſ-
4C,/	-si-	4C/	-si-	4E/	-si-	4c/	-si-	4g\	-si-
4C,/	-mus	4C,/	-mus	4E/	-m(us)	4c,/	-m(us)	4g,\	-m(us)
2AA/	Tu	2AA/	Tu	2F/	tu	2c/	Tu	2a\	Tu
=86	=86	=86	=86	=86	=86	=86	=86	=86	=86
4BB-/	so-	4BB-/	so-	2D/	so-	1B-	so-	4f/	so-
4BB-/	-l(us)	4BB-,/	-l(us)	.	.	.	.	4f/	-l(us)
*	*ij	*	*ij	*	*	*	*	*	*ij
2GG/	so-	2GG/	so-	2d,\	-lus	.	.	2b-\	so-
4AA,/	-l(us)	4AA,/	-l(us)	2c\	al-	2f\	-l(us)	4cc,\	-l(us)
*	*Xij	*	*Xij	*	*	*	*	*	*Xij
*	*	*custos:BB	*	*	*	*	*	*	*
4AA/	al-	4AA/	al-	.	.	.	.	4cc\	al-
!	!	!LO:LB:g=original	!	!	!	!	!	!LO:LB:g=original	!
=87	=87	=87	=87	=87	=87	=87	=87	=87	=87
*	*	*	*	*	*	*	*ij	*	*
4BB-/	-tiſ-	4BB-/	-tiſ-	1B-	-tiſ-	1.f	so-	1dd	-tiſ-
4C/	.	4C/	.	.	.	.	.	.	.
4D/	.	4D/	.	.	.	.	.	.	.
4E/	-[[si-	4E/	.	.	.	.	.	.	.
2F\	-m(us)]]-	2F\	.	2A/	.	.	.	2cc\	.
=88	=88	=88	=88	=88	=88	=88	=88	=88	=88
2G\	.	2G\	.	4B-\	.	4d,\	-l(us)	2b-\	.
*	*	*	*	*	*	*	*Xij	*	*
.	.	.	.	4c\	.	4d\	al-	.	.
2.D\	.	2.D\	.	4d\	.	2.d\	-tiſ-	2.a\	.
.	.	.	.	8c\L	.	.	.	.	.
.	.	.	.	8B-\J	.	.	.	.	.
.	.	.	.	4A/	.	.	.	.	.
4D\	-si-	4D\	-si-	4A/	-si-	4d\	-si-	4a\	-si-
=89	=89	=89	=89	=89	=89	=89	=89	=89	=89
*M4/4	*	*M4/4	*	*M4/4	*	*M4/4	*	*M4/4	*
*met(c)	*	*met(c)	*	*met(c)	*	*met(c)	*	*met(c)	*
4GG,/	-mus	4GG,/	-mus	4B-,\	-m(us)	4d,\	-m(us)	4g,/	-m(us)
2G\	Je-	2G\	Je-	4B-\	Je-	2d\	JE-	2b-\	JE-
.	.	.	.	4B-,\	-su	.	.	.	.
4GG/	-su	4GG/	-su	[<4d\	Chri-	4g\	-SU	4b-\	-su
=90	=90	=90	=90	=90	=90	=90	=90	=90	=90
2AA/	X-	2AA/	X-	8d\L]	.	2en\	Chri-	2a\	X-
.	.	.	.	16c#X\L	.	.	.	.	.
.	.	.	.	16B-\JJ	.	.	.	.	.
.	.	.	.	4c#X\	.	.	.	.	.
2D/	-te	2D\	-te	2d\	-ste.	2f#X;\	-ste.	2a;\	-te
!LO:LB:g=original	!	!	!	!	!	!LO:PB:g=original	!	!	!
=91	=91	=91	=91	=91	=91	=91||	=91||	=91	=91
*M3/2	*	*M3/2	*	*M3/2	*	*M3/2	*	*M3/2	*
2GG/	Cum	2GG/	Cum	2d\	Cum	2g\	Cum	2b-\	Cum
2BB-/	S(an)-	2BB-/	San-	2d\	San-	2d\	San-	2b-\	S(an)-
2C,/	-cto	2C,/	-cto	2c\	-cto	2e\	-cto	2b-\	-cto
=92	=92	=92	=92	=92	=92	=92	=92	=92	=92
*	*ij	*	*ij	*	*ij	*	*ij	*	*ij
2D\	Cum	2D\	Cum	2A/	Cum	4f\	Cum	2a\	Cum
.	.	.	.	.	.	4g\	.	.	.
2F\	S(an)-	2F\	San-	2d\	San-	2a\	San-	2a\	S(an)-
2G,\	-cto	2G,\	-cto	2d\	-cto	(4g\	-cto	2b-\	-cto
*	*Xij	*	*Xij	*	*Xij	*	*Xij	*	*Xij
.	.	.	.	.	.	4f\)	.	.	.
=93	=93	=93	=93	=93	=93	=93	=93	=93	=93
2.A\	San-	2.A\	San-	1A	San-	4e\	San-	2.cc\	San-
.	.	.	.	.	.	4d\	.	.	.
.	.	.	.	.	.	4e\	.	.	.
8G\L	.	8G\L	.	.	.	4f\	.	8b-\L	.
8F\J	.	8F\J	.	.	.	.	.	8a\J	.
*	*	*	*	*custos:B	*	*	*	*	*
4E\	.	4E\	.	2B-\	.	4g\	.	4g/	.
4F\	.	4F\	.	.	.	8f\L	.	4a/	.
.	.	.	.	.	.	8e\J	.	.	.
!	!	!	!	!LO:PB:g=original	!	!	!	!	!
=94	=94	=94	=94	=94	=94	=94	=94	=94	=94
2G\	.	2G\	.	2.B-X\	.	2.d\	.	(2g\	.
2GG/	.	2GG/	.	.	.	.	.	2b-\)	.
.	.	.	.	4d\	.	4g\	.	.	.
2AA,/	-cto	2AA/	.	2c\	.	4f\	.	2cc\	.
.	.	.	.	.	.	4e\	.	.	.
=95	=95	=95	=95	=95	=95	=95	=95	=95	=95
*	*ij	*	*	*	*	*	*	*	*
2BB-/	San-	2BB-/	.	1B-,	-cto	4d\	.	2.dd\	.
.	.	.	.	.	.	4e\	.	.	.
(2D\	.	2D\	.	.	.	1f	.	.	.
.	.	.	.	.	.	.	.	4dd,\	cto
*	*	*custos:G	*	*	*	*	*	*	*
2F\)	.	2F,\	cto	2A\	Spi-	.	.	2cc\	Cum
!	!	!LO:PB:g=original	!	!	!	!	!	!	!
=96	=96	=96	=96	=96	=96	=96	=96	=96	=96
1G	.	1G	San-	2.G/	.	2d,\	-cto	1b-	S(an)-
*	*	*	*	*	*	*	*ij	*	*
.	.	.	.	.	.	2.g\	San-	.	.
.	.	.	.	4d\	.	.	.	.	.
2C,/	-cto	2C/	-cto	2e-X\	ri-	.	.	2cc\	-cto
.	.	.	.	.	.	4g\	-cto	.	.
*	*Xij	*	*	*	*	*	*Xij	*	*
=97	=97	=97	=97	=97	=97	=97	=97	=97	=97
2GG/	Spi-	2GG/	Spi-	[<1.d	-tu	1g	Spi-	2b-\	Spi-
2.D\	.	2.D\	.	.	.	.	.	2.a\	.
.	.	.	.	.	.	2f#X\	-ri-	.	.
4D\	-ri-	4D\	-ri-	.	.	.	.	4a\	-ri-
=98	=98	=98	=98	=98	=98	=98	=98	=98-	=98-
1.GG	-tu	1.GG	-tu	1.d,]	.	1.g	-tu	1.g	-tu
!	!	!	!	!	!	!	!	!LO:LB:g=original	!
=99	=99	=99	=99	=99	=99	=99	=99	=99	=99
2G\	in	2G\	in	2d\	in	2g\	in	2g/	in
2G\	glo-	2G\	glo-	2d\	glo-	2g\	glo-	2dd\	glo-
4En\	-ri-	4En\	-ri-	4c#X\	-ri-	4g\	-ri-	4een\	-ri-
4E\	-a	4E\	-a	4c#\	-a	4g\	-a	4ee\	-a
=100	=100	=100	=100	=100	=100	=100	=100	=100	=100
(4D\	[De-	4D\	De-	1d	De-	4f\	De-	1ff	De-
4E\	.	4E\	.	.	.	4g\	-i	.	.
4F\	.	4F\	.	.	.	(2.a\	Pa-	.	.
4G\)	.	4G\	.	.	.	.	.	.	.
2A\	-i	2A\	-i	2c#X\	-i	.	.	2een\	-i
.	.	.	.	.	.	4g\)	.	.	.
=101	=101	=101	=101	=101	=101	=101	=101	=101	=101
4B-\	Pa-	4B-\	Pa-	4d\	Pa-	(2f\	.	1dd	Pa-
4A\	.	4A\	.	4c\	.	.	.	.	.
4G\	.	4G\	.	4B-\	.	2g\)	.	.	.
4F\	.	4F\	.	4A\	.	.	.	.	.
2En\	.	2E\	.	2G/	.	2g\	-tris	2een\	-tris
!	!	!	!	!	!	!LO:LB:g=original	!	!	!
=102	=102	=102	=102	=102	=102	=102	=102	=102	=102
2D\	-tris	2D\	-tris	2A\	-tris	4f\	a-	2ff\	a-
.	.	.	.	.	.	4g\	.	.	.
2G\	a	2G\	a-	2B-\	a-	4a\	.	1ee	.
.	.	.	.	.	.	4g\	.	.	.
2A\	.	2A\	.	2A\	.	2e\	.	.	.
=103	=103	=103	=103	=103	=103	=103	=103	=103	=103
1.D	-men]	1.D	-men	1.A	-men	1.f#X	-men	1.dd,	-men
!LO:PB:g=original	!	!	!	!	!	!	!	!	!
=104	=104	=104	=104	=104	=104	=104	=104	=104	=104
2D/	a-	2D/	a-	2A/	a-	2fn\	a-	2.ff\	a-
2AA/	.	2AA/	.	1D	-men	2f,\	-men	.	.
.	.	.	.	.	.	.	.	4ee-X\	.
*	*	*	*	*	*	*	*ij	*	*
2BB-/	.	2BB-/	men	.	.	2f\	a-	2dd\	.
=105	=105	=105	=105	=105	=105	=105	=105	=105	=105
*	*	*	*ij	*	*	*	*	*	*
1F	.	1F	a-	4A\	a-	1f	.	1cc	.
.	.	.	.	4B-\	.	.	.	.	.
.	.	.	.	2c\	.	.	.	.	.
2BB-/	-men	2BB-,/	-men	2d\	.	2f\	-men	2b-\	-men
*	*	*	*Xij	*	*	*	*Xij	*	*
=106	=106	=106	=106	=106	=106	=106	=106	=106	=106
2.F\	a-	2.F\	a-	1.c	men	1f	a-	(4cc\	a-
.	.	.	.	.	.	.	.	4b-\	.
.	.	.	.	.	.	.	.	4cc\	.
8E-X\L	.	8E-X\L	.	.	.	.	.	4dd\)	.
8D\J	.	8D\J	.	.	.	.	.	.	.
2C/	.	2C/	.	.	.	2e-X\	.	2ee-X\	.
!	!	!	!	!LO:LB:g=original	!	!	!	!	!
=107	=107	=107	=107	=107	=107	=107	=107	=107	=107
2D\	.	2D\	.	2F/	a-	2f,\	-men	2dd\	.
2E-X\	.	2E-X\	.	1c	.	2g\	a-	1cc	.
*	*	*custos:BB	*	*	*	*	*	*	*
2F\	.	2F\	.	.	.	2f\	.	.	.
!	!	!LO:LB:g=original	!	!	!	!	!	!	!
=108	=108	=108	=108	=108	=108	=108	=108	=108	=108
1.BB-	-men	1.BB-,	-men	1.d	-men	1.f	-men	1.b-	-men
=109	=109	=109	=109	=109	=109	=109	=109	=109	=109
*	*ij	*	*	*	*	*	*ij	*	*
1F	a-	1F	a-	2c\	a-	1f	a-	1cc	a-
.	.	.	.	2A\	.	.	.	.	.
2BB-/	.	2BB-/	.	4F/	.	2f\	-men	2dd\	.
*	*	*	*	*	*	*	*Xij	*	*
.	.	.	.	8G/L	.	.	.	.	.
.	.	.	.	8A/J	.	.	.	.	.
=110	=110	=110	=110	=110	=110	=110	=110	=110	=110
2GG/	-men	2GG,/	-men	4B-\	.	1g	a-	2b-X\	.
.	.	.	.	4G/	.	.	.	.	.
*	*Xij	*	*ij	*	*	*	*	*	*
1D	a-	1D	a-	1A	.	.	.	1a	.
.	.	.	.	.	.	2f#X\	.	.	.
=111	=111	=111	=111	=111	=111	=111	=111	=111-	=111-
*M4/4	*	*M4/4	*	*M4/4	*	*M4/4	*	*M4/4	*
*met(c)	*	*met(c)	*	*met(c)	*	*met(c)	*	*met(c)	*
2GG/	-men	2GG,/	-men	2Bn,\	-men	2g,\	-men	2g/	.
*	*ij	*	*Xij	*	*ij	*	*	*	*
4C/	a-	4C/	a-	4c\	a-	4e-X\	a-	4g/	.
4GG/	men	4GG,/	.	4Bn\	-men	4d,\	.	4g,/	men
*	*Xij	*	*	*	*Xij	*	*	*	*
=112	=112	=112	=112	=112	=112	=112	=112	=112	=112
2C/	a-	2C/	.	2c\	a-	2e-X\	.	2g/	a-
2GG;/	-men.	2GG/	-men.	2Bn\	-men.	2d;\	-men.	2g/	-men
!LO:LB:g=original	!	!LO:LB:g=original	!	!LO:LB:g=original	!	!LO:LB:g=original	!	!LO:PB:g=original	!
==	==	==	==	==	==	==	==	==	==
*-	*-	*-	*-	*-	*-	*-	*-	*-	*-
!!!system-decoration: [(s1,s2,s3,s4,s5)]
!!!RDF**kern: < = below
!!!RDF**kern: > = above
!!!RDF**kern: | = vertical stroke
!!!ENC: Marta Chmielewska
!!!END: 2021-07-21
!!!ENC: Berenika Jozajtis
!!!END: 2021-07-02
